openframe-frontend-core/src/components/icons-v2/brand-logos/github.svg

<svg width="24" height="24" viewBox="0 0 24 24" fill="none" xmlns="http://www.w3.org/2000/svg">
<path d="M1.7274 15.9087C2.29257 15.7676 2.86423 16.0811 3.05747 16.6177L3.09117 16.7275L3.19077 17.0674C3.74471 18.7347 5.17987 19.8755 6.90415 19.8755H9.99937L10.1151 19.8813C10.6823 19.9391 11.1244 20.4181 11.1244 21.0005C11.1241 21.5827 10.6821 22.062 10.1151 22.1196L9.99937 22.1255H6.90415C4.09084 22.1255 1.8809 20.2522 1.05503 17.7764L0.908548 17.2725L0.886575 17.1597C0.80495 16.5954 1.16234 16.05 1.7274 15.9087Z" fill="#888888"/>
<path d="M15.8749 21.9995V19.2705C15.8749 18.5703 15.5728 17.9637 15.1673 16.9502V16.9487C14.7707 15.9555 15.5024 14.8747 16.5721 14.8745L17.013 14.8525C19.1822 14.6319 20.8744 12.7997 20.8744 10.5723C20.8743 9.28759 20.5758 8.0817 19.9164 7.10645L19.7801 6.91455C19.4144 6.42693 19.3552 5.77368 19.6278 5.22852L19.7567 4.92529C19.9529 4.36955 19.9529 3.76668 19.7728 3.1748C19.1066 3.28909 18.4961 3.60342 17.9974 4.09326C17.8061 4.2813 17.5652 4.43762 17.2752 4.51953C17.06 4.58029 16.8541 4.59035 16.6688 4.57227L16.4901 4.5459C15.3864 4.32517 14.4564 4.12263 13.5003 4.12256C12.7829 4.12256 12.0798 4.23636 11.3075 4.38623L10.5091 4.5459C10.2818 4.59128 10.0111 4.60064 9.72398 4.51953C9.43407 4.43761 9.19459 4.28127 9.00327 4.09326C8.50442 3.60303 7.89298 3.28905 7.22642 3.1748C7.01297 3.87634 7.05547 4.59345 7.3729 5.22852C7.61134 5.70539 7.59591 6.26521 7.34361 6.72412L7.22056 6.91455C6.46547 7.92133 6.12491 9.20186 6.12486 10.5723C6.12486 12.9484 8.05102 14.8744 10.4271 14.8745C11.497 14.8745 12.2287 15.9553 11.8319 16.9487V16.9502C11.4265 17.9636 11.1244 18.5703 11.1244 19.2705V21.9995C11.1244 22.6208 10.6207 23.1245 9.99937 23.1245C9.37827 23.1242 8.87437 22.6207 8.87437 21.9995V19.2705C8.87437 18.4539 9.11431 17.6854 9.36509 17.0381C6.25152 16.5305 3.87486 13.8293 3.87486 10.5723C3.87491 8.96467 4.24612 7.29995 5.19908 5.87598C4.62818 4.46443 4.77215 2.93881 5.42173 1.63965L5.52134 1.47119C5.77957 1.09806 6.2068 0.875097 6.66099 0.875L6.93931 0.882324C8.22079 0.945341 9.40824 1.44236 10.3553 2.27979C11.3113 2.08663 12.385 1.87256 13.5003 1.87256C14.6154 1.87262 15.6881 2.08813 16.6439 2.28125C17.6592 1.38305 18.9505 0.875046 20.3382 0.875L20.5316 0.888184C20.9115 0.941689 21.2566 1.15156 21.4779 1.47119L21.5775 1.63965L21.7035 1.90771C22.2442 3.14568 22.3306 4.55895 21.7987 5.87451C22.7526 7.29891 23.1243 8.96395 23.1244 10.5723C23.1244 13.83 20.7472 16.5313 17.6327 17.0381C17.8835 17.6855 18.1249 18.4536 18.1249 19.2705V21.9995C18.1249 22.6208 17.6212 23.1245 16.9999 23.1245C16.3785 23.1245 15.8749 22.6208 15.8749 21.9995Z" fill="#888888"/>
</svg>

<svg xmlns="http://www.w3.org/2000/svg" width="24" height="24" fill="none" viewBox="0 0 24 24">
  <path fill="#888" d="M1.727 15.909a1.125 1.125 0 0 1 1.33.709l.034.11.1.34c.554 1.667 1.989 2.807 3.713 2.807H10l.116.006a1.125 1.125 0 0 1 0 2.239l-.116.005H6.904c-2.813 0-5.023-1.873-5.849-4.349l-.146-.503-.022-.113a1.125 1.125 0 0 1 .84-1.251Z"/>
  <path fill="#888" d="M15.875 22v-2.73c0-.7-.302-1.306-.708-2.32v-.001a1.513 1.513 0 0 1 1.405-2.075l.441-.022a4.303 4.303 0 0 0 3.861-4.28c0-1.284-.298-2.49-.958-3.466l-.136-.191a1.61 1.61 0 0 1-.152-1.686l.129-.304a2.782 2.782 0 0 0 .016-1.75 3.321 3.321 0 0 0-1.776.918 1.637 1.637 0 0 1-1.329.479l-.178-.026c-1.104-.22-2.034-.423-2.99-.423-.717 0-1.42.113-2.193.263l-.798.16a1.67 1.67 0 0 1-.785-.026 1.677 1.677 0 0 1-.72-.427 3.321 3.321 0 0 0-1.778-.918c-.213.701-.17 1.418.147 2.054a1.611 1.611 0 0 1-.03 1.495l-.122.19c-.756 1.007-1.096 2.288-1.096 3.658a4.302 4.302 0 0 0 4.302 4.303c1.07 0 1.802 1.08 1.405 2.074v.001c-.405 1.014-.708 1.62-.708 2.32V22a1.125 1.125 0 0 1-2.25 0v-2.73c0-.816.24-1.585.491-2.232a6.553 6.553 0 0 1-5.49-6.466c0-1.607.371-3.272 1.324-4.696-.57-1.412-.427-2.937.223-4.236l.1-.169A1.388 1.388 0 0 1 6.66.875l.278.007a5.542 5.542 0 0 1 3.416 1.398c.956-.193 2.03-.407 3.145-.407 1.115 0 2.188.215 3.144.408A5.541 5.541 0 0 1 20.338.875l.194.013c.38.054.725.264.946.583l.1.169.125.268c.541 1.238.628 2.651.096 3.967.954 1.424 1.325 3.089 1.325 4.697a6.553 6.553 0 0 1-5.491 6.466c.25.648.492 1.416.492 2.232V22a1.125 1.125 0 0 1-2.25 0Z"/>
</svg>
